!!!!SEGMENT: Wil3032-Qui_veult_aymer_il_fault_estre_joyeulx.krn
!!!id: Wil3032
!!!AGN: Chanson
!!!SCT: Bernstein (1984)
!!!voices: 3
!!!COM: Adrian Willaert
!!!OTL: Qui veult aymer il fault estre joyeulx
**kern	**kern	**kern
*part3	*part2	*part1
*staff3	*staff2	*staff1
*I"Bassus	*I"Tenor	*I"Superius
*I'B	*I'T	*I'S
*clefF4	*clefGv2	*clefGv2
*k[]	*k[]	*k[]
*C:	*C:	*C:
*M2/1	*M2/1	*M2/1
*met(C|)	*met(C|)	*met(C|)
=1	=1	=1
2r	0r	1c
1c	.	.
.	.	2e
2A	.	2f
=2	=2	=2
2B	0r	0g
1c	.	.
2B	.	.
=3	=3	=3
2A	0r	2r
2.d	.	2f
.	.	2e
4c	.	.
[2c	.	2c
=4	=4	=4
2c]	0r	2d
2B	.	2d
2.c	.	1c
4B	.	.
=5	=5	=5
4A	1c	2r
4G	.	.
1A	.	1c
.	2e	.
4G	2f	2A
4F	.	.
=6	=6	=6
2E	0g	2B
4C	.	1c
4D	.	.
4E	.	.
4F	.	.
4G	.	2B
4E	.	.
=7	=7	=7
2F	2r	2A
2D	2f	2.d
2A	2e	.
.	.	4c
2A	2c	[2c
=8	=8	=8
1G	2d	2c]
.	2d	2B
2r	1c	4c
.	.	4d
2c	.	4e
.	.	4f
=9	=9	=9
2B	2r	2g
2A	2e	1a
1d	2f	.
.	2f	4g
.	.	4f
=10	=10	=10
2r	1.g	2.e
2c	.	.
.	.	8dL
.	.	8cJ
2B	.	2d
2c	2g	2e
=11	=11	=11
4F	2a	1f
4G	.	.
4A	2a	.
4B	.	.
2c	2a	1r
2d	2a	.
=12	=12	=12
2B	4g	0r
.	4f	.
2.c	4e	.
.	4d	.
.	2e	.
4B	.	.
4A	[2f	.
4G	.	.
=13	=13	=13
2A	2f]	2r
2G	2.e	2e
1F	.	2f
.	4d	.
.	4d	2f
.	8cL	.
.	8dJ	.
=14	=14	=14
1E	2.e	1.g
.	8dL	.
.	8cJ	.
2r	2B	.
2C	2e	2g
=15	=15	=15
2F	2c	2a
2D	2.f	2a
1F	.	2a
.	4e	.
.	4d	2a
.	4c	.
=16	=16	=16
2G	2B	4g
.	.	4f
2.A	2.c	4e
.	.	4d
.	.	2e
4G	4B	.
4F	[2A	[2f
4E	.	.
=17	=17	=17
2D	2A]	2f]
2E	2G	2.e
2.F	2.A	.
.	.	8dL
.	.	8cJ
.	.	2d
4E	4B	.
=18	=18	=18
1C	4c	4e
.	4d	4f
.	1e	4g
.	.	4e
1r	.	1f
.	2d	.
=19	=19	=19
1A	2.c	1e
.	8BL	.
.	8AJ	.
2A	1c	1r
2A	.	.
=20	=20	=20
1G	1B	2r
.	.	2d
2r	1r	2e
2E	.	2e
=21	=21	=21
2.G	0r	2d
.	.	2B
4G	.	.
2G	.	2.d
2G	.	.
.	.	4d
=22	=22	=22
0F	1a	2d
.	.	2d
.	2a	[1c
.	2a	.
=23	=23	=23
2.E	2g	1c]
.	2e	.
4D	.	.
4E	2g	2.B
4F	.	.
[2G	2g	.
.	.	4A
=24	=24	=24
4G]	2g	4B
4C	.	4G
2E	2g	1c
1D	1f	.
.	.	2B
=25	=25	=25
2r	0e	1c
2A	.	.
2A	.	2r
2A	.	2c
=26	=26	=26
2G	0r	2d
2E	.	2e
2.G	.	2d
.	.	2B
4G	.	.
=27	=27	=27
2G	1r	2.d
2G	.	.
.	.	4d
2D	1a	2d
[2F	.	2d
=28	=28	=28
4F]	2a	4c
4G	.	4B
4A	2a	4c
4B	.	4d
2.c	1g	2.e
8B	.	8dL
8A	.	8cJ
=29	=29	=29
2G	2r	2d
2A	2e	2.c
4E	2g	.
4F	.	8BL
.	.	8AJ
4G	2g	4B
4A	.	4c
=30	=30	=30
2B	2g	2d
2c	2g	1e
2A	1f	.
2B	.	2d
=31	=31	=31
1c	2e	1e
.	2.g	.
1C	.	2r
.	4f	.
.	[2e	[2g
=32	=32	=32
2E	2e]	2g]
2F	4d	2f
.	4c	.
[1G	2.B	2e
.	.	[2d
.	4A	.
=33	=33	=33
1G]	1B	2d]
.	.	4c
.	.	4B
1F	1A	2c
.	.	2d
=34	=34	=34
2.E	0r	2G
.	.	2c
4C	.	.
2D	.	2c
2D	.	2B
=35	=35	=35
1C	1r	2.c
.	.	4d
2r	1c	1e
[2c	.	.
=36	=36	=36
2c]	2e	0r
2A	2f	.
2B	[1g	.
[2c	.	.
=37	=37	=37
2c]	1g]	0r
2B	.	.
2A	1f	.
[2d	.	.
=38	=38	=38
4d]	2.e	1r
4c	.	.
1c	.	.
.	4c	.
.	2d	2r
2B	2d	2d
=39	=39	=39
0c	2c	2.e
.	2c	.
.	.	4f
.	2.e	2g
.	.	2c
.	4f	.
=40	=40	=40
2r	0g	4c
.	.	4d
2G	.	4e
.	.	4c
2B	.	2d
2c	.	2e
=41	=41	=41
0d	2r	2f
.	2f	2.a
.	4f	.
.	4g	4g
.	4a	[2f
.	4f	.
=42	=42	=42
1c	2g	4f]
.	.	8eL
.	.	8dJ
.	2a	2e
2B-X	2d	2f
2G	[2e	2g
=43	=43	=43
2A	4e]	4c
.	4d	4d
2A	1c	4e
.	.	4c
1G	.	1d
.	2B	.
=44	=44	=44
00Cl	00cl	00cl
==	==	==
*-	*-	*-
!!!system-decoration: [*]
!!!RDF**kern: i = editorial accidental
!!!RDF**kern: l = terminal long
!!!ENC: Benjamin Ory
!!!END: 2023/9/29
!!!EED: Benjamin Ory
!!!EEV: 2023/09/29
!!!YEC: Copyright 2023 Benjamin Ory, All Rights Reserved
!!!ONB: Translated from MusicXML on 2023/09/29
